X:1
T:Title
%%score ( 1 2 ) { 3 | 4 }
L:1/8
Q:1/4=92
M:3/4
K:Ab
V:1 treble nm="Grand Piano, Soprano"
V:2 treble 
V:3 bass nm="Choir Pad, Penarth, 73.73.77"
V:4 bass 
V:1
 [Cc][CE] [CA]3 [CE] | z2 c2 z2 | z2 e4 | [GB][GB] [Ac]4 | [CA][CE] [CA]3 [CE] | z2 c2 z2 | z2 e4 | %7
w: By~Samuel~F.~Deyes,~1917 * * *|||||||
 [GB][Gc] [EA]4 | [Cc][Cc] [=Ec]3 [EG] | z2 c4- |[M:2/4] c2 z2 | [Ac][FA] [FA]2 | [GB]2 [EA]2- | %13
w: ||||||
 [EA]4- | [EA]2 z2 |] %15
w: ||
V:2
 x6 | [DB]E C2- [CA]2 | [Fc][FA] A2 EF | x6 | x6 | [DB]E C2- [CA]2 | [Fc][FA] A2 EF | x6 | x6 | %9
 [F=d][FG] =E2 F2- |[M:2/4] F2 [ce][Ac] | x4 | x4 | x4 | x4 |] %15
V:3
 A,2 A,E, A,E, | G,E, A,E, A,E, | A,[K:treble]C C4 | DD C4 | A,2 A,E, A,E, | A,E, A,E, A,E, | %6
 A,[K:treble]C C4 | DD C4 | CC C3 C | _CC =CB, A,2- |[M:2/4] A,2 A,[K:treble]C | EC D2 | D2 C2- | %13
 C4- | C2 z2 |] %15
V:4
 A,,2 A,,4- | A,,6 | F,F, E,4 | E,E, A,,4 | A,,2 A,,4- | A,,6 | F,F, E,4 | E,E, A,4 | z6 | %9
 G,G, C,2 F,2- |[M:2/4] F,2 E,E, | E,E, E,2 | E,2 A,,2- | A,,4- | A,,2 z2 |] %15

